images/arrow.svg

<svg width="20" height="20" viewBox="0 0 20 20" fill="none" xmlns="http://www.w3.org/2000/svg">
<path d="M14.4553 11.8571C14.4553 11.9286 14.4196 12.0089 14.366 12.0625L13.9196 12.5089C13.866 12.5625 13.7857 12.5982 13.7143 12.5982C13.6428 12.5982 13.5625 12.5625 13.5089 12.5089L9.99997 8.99999L6.49105 12.5089C6.43747 12.5625 6.35712 12.5982 6.28569 12.5982C6.20533 12.5982 6.1339 12.5625 6.08033 12.5089L5.6339 12.0625C5.58033 12.0089 5.54462 11.9286 5.54462 11.8571C5.54462 11.7857 5.58033 11.7053 5.6339 11.6518L9.79462 7.49106C9.84819 7.43749 9.92855 7.40178 9.99997 7.40178C10.0714 7.40178 10.1518 7.43749 10.2053 7.49106L14.366 11.6518C14.4196 11.7053 14.4553 11.7857 14.4553 11.8571Z" fill="white"/>
</svg>

<svg xmlns="http://www.w3.org/2000/svg" width="20" height="20" fill="none" viewBox="0 0 20 20"><path fill="#fff" d="M14.455 11.857a.3.3 0 0 1-.089.206l-.446.446a.3.3 0 0 1-.206.09.3.3 0 0 1-.205-.09L10 9l-3.509 3.509a.3.3 0 0 1-.205.09.3.3 0 0 1-.206-.09l-.446-.447a.3.3 0 0 1-.09-.205c0-.071.036-.152.09-.205l4.16-4.16a.3.3 0 0 1 .206-.09.3.3 0 0 1 .205.09l4.161 4.16c.054.053.09.134.09.205"/></svg>
